src/components/assets/logo.svg

<svg fill="none" height="68" viewBox="0 0 68 68" width="68" xmlns="http://www.w3.org/2000/svg" xmlns:xlink="http://www.w3.org/1999/xlink"><linearGradient id="a"><stop offset="0" stop-color="#ffc58f"/><stop offset="1" stop-color="#ff7c7c"/></linearGradient><linearGradient id="b" gradientUnits="userSpaceOnUse" x1="3.68945" x2="33.5218" xlink:href="#a" y1="43.2845" y2="19.213"/><linearGradient id="c" gradientUnits="userSpaceOnUse" x1="30.96" x2="40.2725" xlink:href="#a" y1="23.404" y2="13.8069"/><path d="m18.6668 55.1984.0238.1088c.111.5221.2036 1.0236.2777 1.5043-2.82-1.8206-5.2825-4.1431-7.2603-6.8401.4796-.0478.9149-.1165 1.3065-.206 1.5992 2.0796 3.506 3.9128 5.6523 5.433zm15.212-48.60926c15.1485 0 27.4302 12.22296 27.4302 27.30246 0 6.0492-1.9764 11.6387-5.3214 16.1638l-.5105-1.2909c2.9412-4.2217 4.6647-9.3471 4.6647-14.8729 0-14.4328-11.7576-26.13444-26.263-26.13444-3.1927 0-6.2523.56689-9.0827 1.60501l-1.2905-.75325c3.2001-1.3021 6.7025-2.01978 10.3732-2.01978z" fill="#333" stroke="#333"/><path d="m10.4756 31.6538 3.7617 10.0128c1.0698.184 1.7283.4349 1.7283.7114v.0034c.0274.1214.0252.2544-.0065.3989l.0065.0002-.021.0588c-.029.108-.0739.2223-.1345.3426-.9967 2.3536-3.2009 4.0142-5.91357 4.0142-2.67281 0-4.95458-1.6122-5.98486-3.9107-.08828-.1655-.15011-.3185-.18577-.4591-.00536-.015-.01087-.0304-.01633-.0458l.00548-.0003c-.02795-.1289-.03301-.2469-.01519-.3541l.00971-.0481.00111-.0196c.03158-.2795.73554-.5314 1.85331-.7129l3.75344-9.9917c.18066-.4847.97627-.4847 1.15817 0zm19.8432-.0013 3.7608 10.0105c1.02.1737 1.6712.4079 1.7428.6673l-.0068-.0136.0155.0327c.0519.124.0574.2672.0167.4296l.0001.0002c-.0215.0848-.0549.1736-.1006.2675-.9712 2.4254-3.2437 4.1481-6.0076 4.1481-2.7341 0-5.059-1.6869-6.0538-4.0699-.0592-.1166-.1064-.2286-.1304-.3336l-.0023-.0108c-.0001-.0004-.0003-.0008-.0005-.0013l.0002-.0002-.0048-.0269c-.0143-.0949-.0082-.2136.0182-.3562l.0079-.0396.0011-.0069.0025-.0129c.0644-.2689.7516-.511 1.8276-.6874l3.7552-9.9966c.1807-.4847.9763-.4847 1.1582 0zm-6.7406 10.684-.0029.0129h.0003zm-13.68167-8.703-2.94639 7.8428c.86035-.0768 1.84342-.1203 2.88747-.1203l.1178.0002c1.04979.0033 2.03509.0506 2.89209.1314zm19.84317 0-2.9473 7.8447c.8653-.078 1.8559-.1222 2.9085-.1222l.1178.0002c1.0413.0032 2.0191.0498 2.8712.1294zm-9.8346-13.5939s1.4676 4.5959 1.4676 5.4099c0 .5605-.3242 1.034-.7858 1.2825.3799.1231.714.3393.9751.6289.5828-.5071 1.4415-.9781 2.674-.9781 1.4094 0 2.6208.6152 3.6899 1.1583.3403.1727.6706.338.9763.4673.2277-.2411.5457-.3952.902-.3952.6905 0 1.2498.5617 1.2498 1.2552s-.5593 1.2552-1.2498 1.2552c-.5605 0-1.0171-.3766-1.1755-.8873-.4096-.1566-.829-.3679-1.2609-.5866-.9454-.4798-2.0182-1.0241-3.1318-1.0241-1.0704 0-1.7386.4984-2.1197.9197.0149.1069.0322.2125.0322.3231 0 1.244-1.0048 2.2532-2.2434 2.2532s-2.2434-1.0092-2.2434-2.2532c0-.1106.0173-.2175.0322-.3244-.3824-.4225-1.0506-.9184-2.1197-.9184-1.1136 0-2.1864.5456-3.1331 1.0253-.4306.2187-.85.43-1.2596.5866-.1584.5108-.615.8874-1.1755.8874-.6905 0-1.24981-.563-1.24981-1.2565s.55931-1.2552 1.24981-1.2552c.3563 0 .6743.1553.902.3952.3057-.128.6348-.2933.9751-.4673 1.0691-.5431 2.2817-1.1583 3.6911-1.1583 1.2325 0 2.0912.471 2.674.9781.2611-.2896.5952-.5071.9751-.6289-.4615-.2485-.7857-.7208-.7857-1.2825 0-.814 1.4675-5.4099 1.4675-5.4099z" fill="url(#b)"/><path d="m37.445 18.5089s-1.5225.1306-2.5311.6746c0 0 4.0116-.0217 5.8787 1.5439 0 0-4.5405-1.3925-9.8326 2.0655 0 0 8.4169-1.6096 12.4071 1.8051 0 0-1.2876-2.3788-3.9958-2.8907 0 0 3.0813-.1226 4.1366.3894 0 0-.9115-1.9598-1.9446-2.4269v-1.397c0-.2829-1.543-1.7215-4.1183-1.9643z" fill="url(#c)"/><g fill="#fff"><path d="m36.7594 24.7557s.6493.5653.9241 1.0876c0 0-.5935.5855-1.1607.8738 0 0 1.7184.5402 2.1709 1.1791-.9162-.2875-2.4808-.1797-2.8577.5969 1.0461-.1126 1.6866.1571 1.8212.5571 0 0-.2486.3577-1.0101.5167-.8111.1693-1.0182.5059-1.0182.9759 0 .4699.6158.8997 1.7344.8649 1.1169-.0357 4.1634-.4957 4.3936-6.2487-.2302-.541-3.013-1.6456-5.0047-1.6334z"/><path d="m42.1345 31.1223c1.3676-2.1243 2.1158-3.9752 2.2448-5.5528 2.0246 2.2457 1.9029 4.8751 1.5589 6.8872-.232-.6475-.5313-1.3135-.8978-1.9981.2421 3.1025-.6781 4.7822-2.7606 5.0391-.2436-1.4331-.292-2.8916-.1453-4.3754z"/><path d="m17.4459 11.8539c-.3801.5835-.9371 2.2058-1.6712 4.867-1.7523 2.0015-3.4641 4.795-5.1353 8.3803-.81002.2732-1.66962.6506-2.57885 1.1325 2.37815-4.477 4.70195-7.8254 6.97115-10.0448.4954-1.6433 1.3001-3.0883 2.4142-4.335z"/><path d="m21.9634 16.4418-5.5445 2.611c1.5799.0265 2.8346-.2602 3.7641-.8601s1.523-1.1836 1.7804-1.7509z"/><path d="m19.9176 15.4894c-.0314-1.1411-.1802-1.7825-.4465-1.9241-.296-.132-.4681-.4162-.296-.9353.1061-.3299.0741-.6972-.096-1.1018l1.504-1.0029 1.6926 1.065c.0592.3758-.0638.7224-.369 1.0397.369.3985.369.9128-.0585 1.5068.0119.1472.0202.2915.0248.4329.0071.2143-.0012.5209-.0248.9197z"/><path d="m40.8005 33.0698c-.2652 4.8241.7637 7.5655 3.0869 8.2244 3.4849.9882 9.6805 1.1195 9.284 8.6025.3149.9906.6027 1.9322.8633 2.8246-1.0213 1.0801-2.1294 2.0772-3.3129 2.9805-1.1585-2.7952-2.9182-4.5528-4.954-5.8051-8.0234-4.9889-9.6791-10.5978-4.9673-16.8269z"/><path d="m20.3379 48.4222c4.2014 10.5277 10.9269 3.7822 16.1223 6.2483 2.3756 1.1275 3.6714 3.1975 3.8876 6.2098-2.0255.4707-4.1359.7192-6.3044.7192-4.2046 0-8.1912-.9343-11.7636-2.6068-.0132-3.1695-.6607-6.6927-1.9419-10.5705z"/><path d="m28.3083 19.954c1.0899-.3005 1.9806-.9791 2.6722-2.0359-.0439.6292-.2017 1.1707-.4736 1.6247 3.1499-.5656 5.5945-2.4706 7.3338-5.7152-3.2071-1.7405-6.513-.5532-8.285 1.6122-1.1814 1.4435-1.5971 2.9483-1.2474 4.5142z"/></g></svg>

<svg width="68" height="68" viewBox="0 0 68 68" fill="none" xmlns="http://www.w3.org/2000/svg">
<path d="M18.6668 55.1984L18.6906 55.3072C18.8016 55.8293 18.8942 56.3308 18.9683 56.8115C16.1483 54.9909 13.6858 52.6684 11.708 49.9714C12.1876 49.9236 12.6229 49.8549 13.0145 49.7654C14.6137 51.845 16.5205 53.6782 18.6668 55.1984ZM33.8788 6.58914C49.0273 6.58914 61.309 18.8121 61.309 33.8916C61.309 39.9408 59.3326 45.5303 55.9876 50.0554L55.4771 48.7645C58.4183 44.5428 60.1418 39.4174 60.1418 33.8916C60.1418 19.4588 48.3842 7.75716 33.8788 7.75716C30.6861 7.75716 27.6265 8.32405 24.7961 9.36217L23.5056 8.60892C26.7057 7.30682 30.2081 6.58914 33.8788 6.58914Z" fill="#333333" stroke="#333333"/>
<path d="M10.4756 31.6538L14.2373 41.6666C15.3071 41.8506 15.9656 42.1015 15.9656 42.378L15.9656 42.3814C15.993 42.5028 15.9908 42.6358 15.9591 42.7803L15.9656 42.7805L15.9446 42.8393C15.9156 42.9473 15.8707 43.0616 15.8101 43.1819C14.8134 45.5355 12.6092 47.1961 9.89653 47.1961C7.22372 47.1961 4.94195 45.5839 3.91167 43.2854C3.82339 43.1199 3.76156 42.9669 3.7259 42.8263C3.72054 42.8113 3.71503 42.7959 3.70957 42.7805L3.71505 42.7802C3.6871 42.6513 3.68204 42.5333 3.69986 42.4261L3.70957 42.378L3.71068 42.3584C3.74226 42.0789 4.44622 41.827 5.56399 41.6455L9.31743 31.6538C9.49809 31.1691 10.2937 31.1691 10.4756 31.6538ZM30.3188 31.6525L34.0796 41.663C35.0996 41.8367 35.7508 42.0709 35.8224 42.3303L35.8156 42.3167L35.8311 42.3494C35.883 42.4734 35.8885 42.6166 35.8478 42.779L35.8479 42.7792C35.8264 42.864 35.793 42.9528 35.7473 43.0467C34.7761 45.4721 32.5036 47.1948 29.7397 47.1948C27.0056 47.1948 24.6807 45.5079 23.6859 43.1249C23.6267 43.0083 23.5795 42.8963 23.5555 42.7913L23.5532 42.7805C23.5531 42.7801 23.5529 42.7797 23.5527 42.7792L23.5529 42.779L23.5481 42.7521C23.5338 42.6572 23.5399 42.5385 23.5663 42.3959L23.5742 42.3563L23.5753 42.3494L23.5778 42.3365C23.6422 42.0676 24.3294 41.8255 25.4054 41.6491L29.1606 31.6525C29.3413 31.1678 30.1369 31.1678 30.3188 31.6525ZM23.5782 42.3365L23.5753 42.3494H23.5756L23.5782 42.3365ZM9.89653 33.6335L6.95014 41.4763C7.81049 41.3995 8.79356 41.356 9.83761 41.356L9.95541 41.3562C11.0052 41.3595 11.9905 41.4068 12.8475 41.4876L9.89653 33.6335ZM29.7397 33.6335L26.7924 41.4782C27.6577 41.4002 28.6483 41.356 29.7009 41.356L29.8187 41.3562C30.86 41.3594 31.8378 41.406 32.6899 41.4856L29.7397 33.6335ZM19.9051 20.0396C19.9051 20.0396 21.3727 24.6355 21.3727 25.4495C21.3727 26.01 21.0485 26.4835 20.5869 26.732C20.9668 26.8551 21.3009 27.0713 21.562 27.3609C22.1448 26.8538 23.0035 26.3828 24.236 26.3828C25.6454 26.3828 26.8568 26.998 27.9259 27.5411C28.2662 27.7138 28.5965 27.8791 28.9022 28.0084C29.1299 27.7673 29.4479 27.6132 29.8042 27.6132C30.4947 27.6132 31.054 28.1749 31.054 28.8684C31.054 29.5619 30.4947 30.1236 29.8042 30.1236C29.2437 30.1236 28.7871 29.747 28.6287 29.2363C28.2191 29.0797 27.7997 28.8684 27.3678 28.6497C26.4224 28.1699 25.3496 27.6256 24.236 27.6256C23.1656 27.6256 22.4974 28.124 22.1163 28.5453C22.1312 28.6522 22.1485 28.7578 22.1485 28.8684C22.1485 30.1124 21.1437 31.1216 19.9051 31.1216C18.6665 31.1216 17.6617 30.1124 17.6617 28.8684C17.6617 28.7578 17.679 28.6509 17.6939 28.544C17.3115 28.1215 16.6433 27.6256 15.5742 27.6256C14.4606 27.6256 13.3878 28.1712 12.4411 28.6509C12.0105 28.8696 11.5911 29.0809 11.1815 29.2375C11.0231 29.7483 10.5665 30.1249 10.006 30.1249C9.3155 30.1249 8.75619 29.5619 8.75619 28.8684C8.75619 28.1749 9.3155 27.6132 10.006 27.6132C10.3623 27.6132 10.6803 27.7685 10.908 28.0084C11.2137 27.8804 11.5428 27.7151 11.8831 27.5411C12.9522 26.998 14.1648 26.3828 15.5742 26.3828C16.8067 26.3828 17.6654 26.8538 18.2482 27.3609C18.5093 27.0713 18.8434 26.8538 19.2233 26.732C18.7618 26.4835 18.4376 26.0112 18.4376 25.4495C18.4376 24.6355 19.9051 20.0396 19.9051 20.0396Z" fill="url(#paint0_linear)"/>
<path d="M37.445 18.5089C37.445 18.5089 35.9225 18.6395 34.9139 19.1835C34.9139 19.1835 38.9255 19.1618 40.7926 20.7274C40.7926 20.7274 36.2521 19.3349 30.96 22.7929C30.96 22.7929 39.3769 21.1833 43.3671 24.598C43.3671 24.598 42.0795 22.2192 39.3713 21.7073C39.3713 21.7073 42.4526 21.5847 43.5079 22.0967C43.5079 22.0967 42.5964 20.1369 41.5633 19.6698V18.2728C41.5633 17.9899 40.0203 16.5513 37.445 16.3085V18.5089Z" fill="url(#paint1_linear)"/>
<path d="M36.7594 24.7557C36.7594 24.7557 37.4087 25.321 37.6835 25.8433C37.6835 25.8433 37.09 26.4288 36.5228 26.7171C36.5228 26.7171 38.2412 27.2573 38.6937 27.8962C37.7775 27.6087 36.2129 27.7165 35.836 28.4931C36.8821 28.3805 37.5226 28.6502 37.6572 29.0502C37.6572 29.0502 37.4086 29.4079 36.6471 29.5669C35.836 29.7362 35.6289 30.0728 35.6289 30.5428C35.6289 31.0127 36.2447 31.4425 37.3633 31.4077C38.4802 31.372 41.5267 30.912 41.7569 25.159C41.5267 24.618 38.7439 23.5134 36.7522 23.5256L36.7594 24.7557Z" fill="white"/>
<path d="M42.1345 31.1223C43.5021 28.998 44.2503 27.1471 44.3793 25.5695C46.4039 27.8152 46.2822 30.4446 45.9382 32.4567C45.7062 31.8092 45.4069 31.1432 45.0404 30.4586C45.2825 33.5611 44.3623 35.2408 42.2798 35.4977C42.0362 34.0646 41.9878 32.6061 42.1345 31.1223Z" fill="white"/>
<path d="M17.4459 11.8539C17.0658 12.4374 16.5088 14.0597 15.7747 16.7209C14.0224 18.7224 12.3106 21.5159 10.6394 25.1012C9.82938 25.3744 8.96978 25.7518 8.06055 26.2337C10.4387 21.7567 12.7625 18.4083 15.0317 16.1889C15.5271 14.5456 16.3318 13.1006 17.4459 11.8539Z" fill="white"/>
<path d="M21.9634 16.4418L16.4189 19.0528C17.9988 19.0793 19.2535 18.7926 20.183 18.1927C21.1125 17.5928 21.706 17.0091 21.9634 16.4418Z" fill="white"/>
<path d="M19.9176 15.4894C19.8862 14.3483 19.7374 13.7069 19.4711 13.5653C19.1751 13.4333 19.003 13.1491 19.1751 12.63C19.2812 12.3001 19.2492 11.9328 19.0791 11.5282L20.5831 10.5253L22.2757 11.5903C22.3349 11.9661 22.2119 12.3127 21.9067 12.63C22.2757 13.0285 22.2757 13.5428 21.8482 14.1368C21.8601 14.284 21.8684 14.4283 21.873 14.5697C21.8801 14.784 21.8718 15.0906 21.8482 15.4894H19.9176Z" fill="white"/>
<path d="M40.8005 33.0698C40.5353 37.8939 41.5642 40.6353 43.8874 41.2942C47.3723 42.2824 53.5679 42.4137 53.1714 49.8967C53.4863 50.8873 53.7741 51.8289 54.0347 52.7213C53.0134 53.8014 51.9053 54.7985 50.7218 55.7018C49.5633 52.9066 47.8036 51.149 45.7678 49.8967C37.7444 44.9078 36.0887 39.2989 40.8005 33.0698Z" fill="white"/>
<path d="M20.3379 48.4222C24.5393 58.9499 31.2648 52.2044 36.4602 54.6705C38.8358 55.798 40.1316 57.868 40.3478 60.8803C38.3223 61.351 36.2119 61.5995 34.0434 61.5995C29.8388 61.5995 25.8522 60.6652 22.2798 58.9927C22.2666 55.8232 21.6191 52.3 20.3379 48.4222Z" fill="white"/>
<path d="M28.3083 19.954C29.3982 19.6535 30.2889 18.9749 30.9805 17.9181C30.9366 18.5473 30.7788 19.0888 30.5069 19.5428C33.6568 18.9772 36.1014 17.0722 37.8407 13.8276C34.6336 12.0871 31.3277 13.2744 29.5557 15.4398C28.3743 16.8833 27.9586 18.3881 28.3083 19.954Z" fill="white"/>
<defs>
<linearGradient id="paint0_linear" x1="3.68945" y1="43.2845" x2="33.5218" y2="19.213" gradientUnits="userSpaceOnUse">
<stop stop-color="#FFC58F"/>
<stop offset="1" stop-color="#FF7C7C"/>
</linearGradient>
<linearGradient id="paint1_linear" x1="30.96" y1="23.404" x2="40.2725" y2="13.8069" gradientUnits="userSpaceOnUse">
<stop stop-color="#FFC58F"/>
<stop offset="1" stop-color="#FF7C7C"/>
</linearGradient>
</defs>
</svg>
